FINK
CUT[WOHL AUF NOCH GETRUNKEN]
REG[Europa, Mitteleuropa, Deutschland]
KEY[F0447  16 Bb 2/4]
MEL[1_  1_-5_-5_3_  3_1_1_
    5_  5_4_3_2_  1__0_
    3_  2__-7_3_  2__-7_
    5_  2_-7_1_-6_  -5__0_
    -5_  -5_4_4_3_  3_2_2_
    2_  3_5_4_3_  2__0_
    2_  3_2_1_-7_  -6_6_5_
    4_  3__2_.2  1__0_ //] >>
FCT[Heimat -, Wander -, Abschieds - Lied]
